!!!ONB: MCCC : ILB0165_01 : Extracted Monophonic Melody
!!!COM: Beethoven, Ludwig van
!!!OPR: Piano Sonata No.4
!!!OMV: 1
!!!SCT: Op.7
!!!ODT: 1796///
**kern
*thru
*staff1
*Ipiano
*clefG2
*k[b-e-a-]
*E-:
*>A
*M6/8
*MM154
=1
2.g
=2
4e-
8r
4r
8r
=3
2.b-
=4
4g
8r
4r
8b-
=5
8ee-
8dd
8ff
8ee-
8dd
8ff
=6
8ee-
8dd
8ff
8ee-
8dd
8cc
=7
8aa-
8gg
8bb-
8aa-
8gg
8bb-
=8
8aa-
8gg
8bb-
8aa-
8gg
8ff
=9
8eee-
8ddd
8fff
8eee-
8ddd
8fff
=10
8eee-
8ddd
8fff
8eee-
8ddd-
8ccc
=11
8bb
8ccc
8bb-
8aa-
8gg
8ff
=12
8ee-
8dd
8ff
8aa-
8ff
8dd
=13
4ee-
8r
[4.gg
=14
4.gg]
4.aa-
=15
2.bb-
=16
2.dd
=17
4ee-
8r
4r
8r
=18
4r
8r
8ee-
8ff
8gg
=19
8ff
8ee-
8dd
8cc
8b-
8a-
=20
8g
8a-
8g
8f
8e-
8d
=21
8e-
8f
8g
8a-
8b-
8cc
=22
8dd
8ee-
8ff
8gg
8aa-
8bb-
=23
8aa-
8gg
8ff
8ee-
8dd
8cc
=24
8b-
8cc
8b-
8a-
8g
8f
=25
2.g
=26
4e-
8r
4r
8gg
=27
4aa-
8aa-
4aa-
8ccc
=28
4eee-
8r
4r
8r
=29
2.a
=30
4g-
8r
4r
8aa
=31
4bb-
8bb-
4bb-
8ddd-
=32
4fff
8r
4r
8r
=33
2.ddd-
=34
2.bb-
=35
4aa
8ccc
4ff
8aa
=36
4bb-
8ddd-
4ff
8bb-
=37
4aa
8ccc
4aa
8ff
=38
4bb-
8ddd-
4ff
8bb-
=39
8aa
8bb
8ccc
8ff
8gg#
8aa
=40
8cc
8ee
8ff
8a
8b
8cc
=41
8f
8a
8cc
8ff
8a
8cc
=42
8f
8cc
8a
8b-
8cc
8dd
=43
8f
8a
8cc
8ff
8a
8cc
=44
8f
8cc
8a
8b-
8cc
8dd
=45
8f#
8a
8f#
8g
8a
8b-
=46
8d
8f
8d
8e-
8f
8g
=47
8B
8d
8B
8c
8d
8e-
=48
8B-
8d
8f
8e-
8c
8A
=49
4B-
8r
4r
8r
=50
2.r
=51
8a
[4fff
4.fff_
=52
4fff]
8a
8b-
8cc
8dd
=53
8a
[4fff
4.fff_
=54
4fff]
8a
8b-
8cc
8dd
=55
8f#
8a
8f#
8g
8a
8b-
=56
8d
8f
8d
8e-
8f
8g
=57
8B
8d
8B
8c
8d
8e-
=58
8B-
8d
8f
8c
8e-
8a
=59
4b-
8r
4.dd
=60
4.cc
4.b-
=61
4g
8r
4.ee-
=62
4.dd
4.cc
=63
4a
8r
4.aa
=64
4.bb-
4.ccc
=65
4.ddd
4.fff[
=66
4.fff]
8eee
8ddd
8eee
=67
4fff
8r
4.d
=68
8dd
8cc
8cc
4.f
=69
8a
8g
8g
4.e-
=70
8ee-
8dd
8dd
4.g
=71
8b-
8a
8a
4.aa
=72
4.bb-
4.ccc
=73
4ddd
8r
8r
8bb-
8bb-
=74
8bb-
8aa
8aa
8r
8gg
8gg
=75
8gg
8ff
8ff
8r
8ee-
8ee-
=76
8ee-
8dd
8dd
8r
8cc
8cc
=77
8cc
8b-
8b-
8b-
8a
8a
=78
8a
8g
8g
8g
8f
8f
=79
8f
8e-
8e-
8e-
8e-
8e-
=80
8e-
8e-
8e-
8e-
8e-
8e-
=81
4e
8r
4.c
=82
4.B
4.f
=83
4.e
4.g
=84
2.g
=85
4g
8r
8ff#
8gg
8aa
=86
8gg
8ff
8ee
8dd
8cc
8b
=87
8cc
8dd
8ee
8ff#
8gg
8aa
=88
8gg
8ff
8ee
8dd
8cc
8b
=89
4.cc[
8cc]
8dd
8ee
=90
4ff
8ee-
4dd
8ee-
=91
4dd
8cc
4b-
8dd
=92
4cc
8b-
4a
8cc
=93
8b-
8b-
8b-
8b-
8a
8b-
=94
8dd
8dd
8dd
8dd
8cc#
8dd
=95
8ff
8ff
8ff
8ff
8ee
8ff
=96
8bb-
8bb-
8bb-
8bb-
8aa
8bb-
=97
16b-
16cc
16b-
16a
16b-
16a
16b-
16b
16cc
16cc#
16dd
16ee-
=98
16ee
16ff
16ff#
16gg
16aa-
16aa
16bb
16ccc
16ccc#
16ddd
16eee-
16eee
=99
4fff
8r
4ddd
8r
=100
4eee-
8r
4aa
8r
=101
16B-
16b-
16B-
16b-
16B-
16b-
16B-
16b-
16A
16a
16B-
16b-
=102
16d
16dd
16d
16dd
16d
16dd
16d
16dd
16c#
16cc#
16d
16dd
=103
16f
16ff
16f
16ff
16f
16ff
16f
16ff
16e
16ee
16f
16ff
=104
16b-
16bb-
16b-
16bb-
16b-
16bb-
16b-
16bb-
16a
16aa
16b-
16bb-
=105
16B-
16c
16B-
16A
16B-
16A
16B-
16B
16c
16c#
16d
16e-
=106
16e
16f
16f#
16g
16a-
16a
16b-
16b
16cc
16cc#
16dd
16ee-
=107
16ee
16ff
16ff#
16gg
16aa-
16aa
16bb-
16bb
16ccc
16ddd-
16ccc
16ddd-
=108
16ccc
16ddd-
16ccc
16ddd-
16ccc
16ddd-
16ccc
16ddd-
16ccc
16ddd-
16ccc
16ddd-
=109
8ddd
8ccc
8bb-
8bb-
8aa
8gg
=110
8ff
8ee-
8dd
8cc
8ee-
8a
=111
16b-
16dd
16bb-
16dd
16bb-
16dd
16b-
16dd
16bb-
16dd
16bb-
16dd
=112
16cc-
16dd
16aa-
16dd
16aa-
16dd
16b-
16dd
16bb-
16dd
16bb-
16dd
=113
16a
16dd
16ccc-
16dd
16ccc-
16dd
16b-
16dd
16bb-
16dd
16bb-
16dd
=114
16cc-
16dd
16aa-
16dd
16aa-
16dd
16a-
16dd
16ccc-
16dd
16ccc-
16dd
=115
16g
16ee-
16bb-
16ee-
16bb-
16ee-
16a-
16ee-
16aa-
16ee-
16aa-
16ee-
=116
16b-
16ee-
16gg
16ee-
16gg
16ee-
16b-
16ee-
16gg-
16ee-
16gg-
16ee-
=117
16a
16ee-
16gg-
16ee-
16gg-
16ee-
16a
16ee-
16ff
16ee-
16ff
16ee-
=118
16a
16ee-
16ff
16ee-
16ff
16ee-
16a
16ee-
16ff
16ee-
16ff
16ee-
=119
16b-
16dd
16ff
16dd
16ff
16dd
16f
16b-
16dd
16b-
16dd
16b-
=120
16f
16cc-
16dd
16cc-
16dd
16cc-
16f
16b-
16dd
16b-
16dd
16b-
=121
16f
16a-
16dd
16a-
16dd
16a-
16f
16b-
16dd
16b-
16dd
16b-
=122
16f
16cc-
16dd
16cc-
16dd
16cc-
16f
16a-
16dd
16a-
16dd
16a-
=123
16e-
16g
16ee-
16g
16ee-
16g
16e-
16a-
16ee-
16a-
16ee-
16a-
=124
16e-
16b-
16ee-
16b-
16ee-
16b-
16e-
16g-
16b-
16g-
16b-
16g-
=125
16c
16g-
16b-
16g-
16b-
16g-
16c
16g-
16a
16g-
16a
16g-
=126
16c
16f
16a
16f
16a
16f
16c
16e-
16a
16e-
16a
16e-
=127
4b-
8d[
4d]
8B-
=128
4F
8ee-[
4ee-]
8cc
=129
4dd
8d[
4d]
8B-
=130
4F
8ff
4.ff[
=131
4ff]
8d[
4d]
8B-
=132
4F
8eee-[
4eee-]
8ccc
=133
4bb-
8fff
4ddd
8bb-
=134
4ff
8dd
4b-
8f
=135
4b-
8r
4.r
=136
2.r
=137
*>A
*M6/8
2.g
=138
4e-
8r
4r
8r
=139
2.b-
=140
4g
8r
4r
8b-
=141
8ee-
8dd
8ff
8ee-
8dd
8ff
=142
8ee-
8dd
8ff
8ee-
8dd
8cc
=143
8aa-
8gg
8bb-
8aa-
8gg
8bb-
=144
8aa-
8gg
8bb-
8aa-
8gg
8ff
=145
8eee-
8ddd
8fff
8eee-
8ddd
8fff
=146
8eee-
8ddd
8fff
8eee-
8ddd-
8ccc
=147
8bb
8ccc
8bb-
8aa-
8gg
8ff
=148
8ee-
8dd
8ff
8aa-
8ff
8dd
=149
4ee-
8r
[4.gg
=150
4.gg]
4.aa-
=151
2.bb-
=152
2.dd
=153
4ee-
8r
4r
8r
=154
4r
8r
8ee-
8ff
8gg
=155
8ff
8ee-
8dd
8cc
8b-
8a-
=156
8g
8a-
8g
8f
8e-
8d
=157
8e-
8f
8g
8a-
8b-
8cc
=158
8dd
8ee-
8ff
8gg
8aa-
8bb-
=159
8aa-
8gg
8ff
8ee-
8dd
8cc
=160
8b-
8cc
8b-
8a-
8g
8f
=161
2.g
=162
4e-
8r
4r
8gg
=163
4aa-
8aa-
4aa-
8ccc
=164
4eee-
8r
4r
8r
=165
2.a
=166
4g-
8r
4r
8aa
=167
4bb-
8bb-
4bb-
8ddd-
=168
4fff
8r
4r
8r
=169
2.ddd-
=170
2.bb-
=171
4aa
8ccc
4ff
8aa
=172
4bb-
8ddd-
4ff
8bb-
=173
4aa
8ccc
4aa
8ff
=174
4bb-
8ddd-
4ff
8bb-
=175
8aa
8bb
8ccc
8ff
8gg#
8aa
=176
8cc
8ee
8ff
8a
8b
8cc
=177
8f
8a
8cc
8ff
8a
8cc
=178
8f
8cc
8a
8b-
8cc
8dd
=179
8f
8a
8cc
8ff
8a
8cc
=180
8f
8cc
8a
8b-
8cc
8dd
=181
8f#
8a
8f#
8g
8a
8b-
=182
8d
8f
8d
8e-
8f
8g
=183
8B
8d
8B
8c
8d
8e-
=184
8B-
8d
8f
8e-
8c
8A
=185
4B-
8r
4r
8r
=186
2.r
=187
8a
[4fff
4.fff_
=188
4fff]
8a
8b-
8cc
8dd
=189
8a
[4fff
4.fff_
=190
4fff]
8a
8b-
8cc
8dd
=191
8f#
8a
8f#
8g
8a
8b-
=192
8d
8f
8d
8e-
8f
8g
=193
8B
8d
8B
8c
8d
8e-
=194
8B-
8d
8f
8c
8e-
8a
=195
4b-
8r
4.dd
=196
4.cc
4.b-
=197
4g
8r
4.ee-
=198
4.dd
4.cc
=199
4a
8r
4.aa
=200
4.bb-
4.ccc
=201
4.ddd
4.fff[
=202
4.fff]
8eee
8ddd
8eee
=203
4fff
8r
4.d
=204
8dd
8cc
8cc
4.f
=205
8a
8g
8g
4.e-
=206
8ee-
8dd
8dd
4.g
=207
8b-
8a
8a
4.aa
=208
4.bb-
4.ccc
=209
4ddd
8r
8r
8bb-
8bb-
=210
8bb-
8aa
8aa
8r
8gg
8gg
=211
8gg
8ff
8ff
8r
8ee-
8ee-
=212
8ee-
8dd
8dd
8r
8cc
8cc
=213
8cc
8b-
8b-
8b-
8a
8a
=214
8a
8g
8g
8g
8f
8f
=215
8f
8e-
8e-
8e-
8e-
8e-
=216
8e-
8e-
8e-
8e-
8e-
8e-
=217
4e
8r
4.c
=218
4.B
4.f
=219
4.e
4.g
=220
2.g
=221
4g
8r
8ff#
8gg
8aa
=222
8gg
8ff
8ee
8dd
8cc
8b
=223
8cc
8dd
8ee
8ff#
8gg
8aa
=224
8gg
8ff
8ee
8dd
8cc
8b
=225
4.cc[
8cc]
8dd
8ee
=226
4ff
8ee-
4dd
8ee-
=227
4dd
8cc
4b-
8dd
=228
4cc
8b-
4a
8cc
=229
8b-
8b-
8b-
8b-
8a
8b-
=230
8dd
8dd
8dd
8dd
8cc#
8dd
=231
8ff
8ff
8ff
8ff
8ee
8ff
=232
8bb-
8bb-
8bb-
8bb-
8aa
8bb-
=233
16b-
16cc
16b-
16a
16b-
16a
16b-
16b
16cc
16cc#
16dd
16ee-
=234
16ee
16ff
16ff#
16gg
16aa-
16aa
16bb
16ccc
16ccc#
16ddd
16eee-
16eee
=235
4fff
8r
4ddd
8r
=236
4eee-
8r
4aa
8r
=237
16B-
16b-
16B-
16b-
16B-
16b-
16B-
16b-
16A
16a
16B-
16b-
=238
16d
16dd
16d
16dd
16d
16dd
16d
16dd
16c#
16cc#
16d
16dd
=239
16f
16ff
16f
16ff
16f
16ff
16f
16ff
16e
16ee
16f
16ff
=240
16b-
16bb-
16b-
16bb-
16b-
16bb-
16b-
16bb-
16a
16aa
16b-
16bb-
=241
16B-
16c
16B-
16A
16B-
16A
16B-
16B
16c
16c#
16d
16e-
=242
16e
16f
16f#
16g
16a-
16a
16b-
16b
16cc
16cc#
16dd
16ee-
=243
16ee
16ff
16ff#
16gg
16aa-
16aa
16bb-
16bb
16ccc
16ddd-
16ccc
16ddd-
=244
16ccc
16ddd-
16ccc
16ddd-
16ccc
16ddd-
16ccc
16ddd-
16ccc
16ddd-
16ccc
16ddd-
=245
8ddd
8ccc
8bb-
8bb-
8aa
8gg
=246
8ff
8ee-
8dd
8cc
8ee-
8a
=247
16b-
16dd
16bb-
16dd
16bb-
16dd
16b-
16dd
16bb-
16dd
16bb-
16dd
=248
16cc-
16dd
16aa-
16dd
16aa-
16dd
16b-
16dd
16bb-
16dd
16bb-
16dd
=249
16a
16dd
16ccc-
16dd
16ccc-
16dd
16b-
16dd
16bb-
16dd
16bb-
16dd
=250
16cc-
16dd
16aa-
16dd
16aa-
16dd
16a-
16dd
16ccc-
16dd
16ccc-
16dd
=251
16g
16ee-
16bb-
16ee-
16bb-
16ee-
16a-
16ee-
16aa-
16ee-
16aa-
16ee-
=252
16b-
16ee-
16gg
16ee-
16gg
16ee-
16b-
16ee-
16gg-
16ee-
16gg-
16ee-
=253
16a
16ee-
16gg-
16ee-
16gg-
16ee-
16a
16ee-
16ff
16ee-
16ff
16ee-
=254
16a
16ee-
16ff
16ee-
16ff
16ee-
16a
16ee-
16ff
16ee-
16ff
16ee-
=255
16b-
16dd
16ff
16dd
16ff
16dd
16f
16b-
16dd
16b-
16dd
16b-
=256
16f
16cc-
16dd
16cc-
16dd
16cc-
16f
16b-
16dd
16b-
16dd
16b-
=257
16f
16a-
16dd
16a-
16dd
16a-
16f
16b-
16dd
16b-
16dd
16b-
=258
16f
16cc-
16dd
16cc-
16dd
16cc-
16f
16a-
16dd
16a-
16dd
16a-
=259
16e-
16g
16ee-
16g
16ee-
16g
16e-
16a-
16ee-
16a-
16ee-
16a-
=260
16e-
16b-
16ee-
16b-
16ee-
16b-
16e-
16g-
16b-
16g-
16b-
16g-
=261
16c
16g-
16b-
16g-
16b-
16g-
16c
16g-
16a
16g-
16a
16g-
=262
16c
16f
16a
16f
16a
16f
16c
16e-
16a
16e-
16a
16e-
=263
4b-
8d[
4d]
8B-
=264
4F
8ee-[
4ee-]
8cc
=265
4dd
8d[
4d]
8B-
=266
4F
8ff
4.ff[
=267
4ff]
8d[
4d]
8B-
=268
4F
8eee-[
4eee-]
8ccc
=269
4bb-
8fff
4ddd
8bb-
=270
4ff
8dd
4b-
8f
=271
4b-
8r
4.r
=272
2.r
=273
*>B
2.d
=274
4B
8r
4r
8r
=275
2.f
=276
4d
8r
4r
8r
=277
4c
8r
4r
8r
=278
2.r
=279
8b
8cc
8dd
8ee-
8ff
8gg
=280
8aa-
8bb
8ccc
8ddd
8eee-
8fff
=281
8eee-
8ddd-
8ccc
8bb-
8aa-
8gg
=282
8ff
8ee-
8dd-
8cc
8b-
8a-
=283
8g
8a-
8b-
8cc
8dd-
8ee-
=284
8ff
8gg
8aa-
8bb-
8ccc
8ddd-
=285
8ccc
8bb-
8aa-
8gg
8ff
8ee-
=286
8dd-
8cc
8b-
8a-
8g
8f
=287
8e
8f
8g
8a-
8b-
8cc
=288
8dd-
8ee
8ff
8gg
8aa-
8bb-
=289
4aa-
8r
4r
8r
=290
4r
8dd-[
4dd-]
8b-
=291
4a-
8r
4.r
=292
4r
8ee[
4.ee]
=293
4ff
8r
4.r
=294
4r
8ee-[
4ee-]
8cc
=295
4b-
8r
4r
8r
=296
4r
8ff#[
4.ff#]
=297
4gg
8r
4r
8r
=298
4r
[8ccc#
4ccc#]
8ccc#
=299
4ddd
8d[
4d]
8d
=300
4e-
8ccc#[
4ccc#]
8ccc#
=301
4ddd
8dd[
4dd]
8cc#
=302
4dd
8dd[
4dd]
8cc#
=303
4cc
8cc[
4cc]
8b
=304
4cc
8cc[
4cc]
8b
=305
*k[]
[2.cc
=306
4cc]
8r
4r
8r
=307
2.dd
=308
4g#
8r
4r
8r
=309
[4.cc
4cc]
8ee
=310
4ee
8dd
4cc
8b
=311
[4.cc
4cc]
8ee
=312
4ee
8dd
4cc
8b
=313
[2.ff
=314
4ff]
8r
4r
8r
=315
[2.gg
=316
4gg]
8r
4r
8r
=317
[4.ff
4ff]
8aa
=318
4aa
8gg
4ff
8ee
=319
[4.ff
4ff]
8aa
=320
4aa
8gg
4ff
8ee
=321
2.ff
=322
4a
8r
4r
8r
=323
2.ff
=324
4a-
8r
4r
8r
=325
*k[b-e-a-]
2.g
=326
4e-
8r
4r
8r
=327
2.b-
=328
4g
8r
4r
8b-
=329
8ee-
8dd
8ff
8ee-
8dd
8ff
=330
8ee-
8dd
8ff
8ee-
8dd
8cc
=331
8aa-
8gg
8bb-
8aa-
8gg
8bb-
=332
8aa-
8gg
8bb-
8aa-
8gg
8ff
=333
8eee-
8ddd
8fff
8eee-
8ddd
8fff
=334
8eee-
8ddd
8fff
8eee-
8ddd-
8ccc
=335
8bb
8ccc
8bb-
8aa-
8gg
8ff
=336
8ee-
8dd
8ff
8aa-
8ff
8dd
=337
4ee-
8r
[4.gg
=338
4.gg]
4.aa-
=339
4.bb-
4.ccc
=340
4.ddd-
4.eee-
=341
8ccc
8eee-
8ddd-
8ccc
8bb-
8aa-
=342
8gg
8ff
8ee-
8dd-
8cc
8b-
=343
8a-
8g
8f
8e-
8d
8f
=344
8e-
8d
8f
8e-
8f
8d-
=345
8c
8ccc
8eee-
8ddd-
8ccc
8bb-
=346
8aa-
8gg
8ff
8ee-
8dd-
8cc
=347
8b-
8a-
8g
8f
8e-
8d
=348
8e-
8f
8d
8e-
8f
8d-
=349
8c
8d-
8B
8c
8d-
8d
=350
8e-
8e
8f
8g-
8f
8e-
=351
4d
8f
4d
8B-
=352
4e-
8g-
4B-
8e-
=353
4d
8dd
4bb-
8aa-
=354
4gg-
8ee-
4gg-
8aa
=355
8bb-
8eee
8fff
8bb-
8ccc#
8ddd
=356
8ff
8aa
8bb-
8dd
8ee
8ff
=357
8cc#
8dd
8b-
8cc#
8dd
8b-
=358
8cc#
8dd
8b-
8ee-
8ff
8gg
=359
8cc#
8dd
8b-
8cc#
8dd
8b-
=360
8cc#
8dd
8b-
8ee-
8ff
8gg
=361
8b
8dd
8b
8cc
8dd
8ee-
=362
8g
8b-
8g
8a-
8b-
8cc
=363
8e
8g
8e
8f
8g
8a-
=364
8e-
8g
8b-
8a-
8f
8d
=365
4e-
8r
4r
8r
=366
2.r
=367
8d
[4bb-
4.bb-_
=368
4bb-]
8d
8e-
8f
8g
=369
8d
[4bb-
4.bb-_
=370
4bb-]
8d
8e-
8f
8g
=371
8f
8dd
8ff
8ee-
8dd
8cc
=372
8dd-
8b-
8dd-
8cc
8b-
8a-
=373
8b-
8g
8b-
8a-
8g
8f
=374
8e-
8g
8b-
8f
8a-
8dd
=375
4ee-
8r
4.g
=376
4.f
4.e-
=377
4c
8r
4.a-
=378
4.g
4.f
=379
4d
8r
4.dd
=380
4.ee-
4.ff
=381
4.gg
4.bb-[
=382
8bb-]
8ccc
8bb-
8aa
8gg
8aa
=383
4bb-
8r
4.g
=384
8gg
8ff
8ff
4.b-
=385
8dd
8cc
8cc
4.a-
=386
8aa-
8gg
8gg
4.cc
=387
8ee-
8dd
8dd
4.bb-
=388
4.ccc
4.ddd
=389
4eee-
8r
8r
8eee-
8eee-
=390
8eee-
8ddd
8ddd
8r
8ccc
8ccc
=391
8ccc
8bb-
8bb-
8r
8aa-
8aa-
=392
8aa-
8gg
8gg
4.r
=393
8ff
8ee-
8ee-
8ee-
8dd
8dd
=394
8dd
8cc
8cc
8cc
8b-
8b-
=395
8b-
8a-
8a-
8a-
8a-
8a-
=396
8a-
8a-
8a-
8a-
8a-
8a-
=397
4a
8r
4.f
=398
4.e
4.b-
=399
4.a
4.cc
=400
2.cc[
=401
4cc]
8r
8bb
8ccc
8ddd
=402
8ccc
8bb-
8aa
8gg
8ff
8ee
=403
8ff
8gg
8aa
8bb
8ccc
8ddd
=404
8ccc
8bb-
8aa
8gg
8ff
8ee
=405
4.ff[
8ff]
8gg
8aa
=406
4bb-
8aa-
4gg
8aa-
=407
4gg
8ff
4ee-
8gg
=408
4ff
8ee-
4dd
8ff
=409
8ee-
8ee-
8ee-
8ee-
8dd
8ee-
=410
8gg
8gg
8gg
8gg
8ff#
8gg
=411
8bb-
8bb-
8bb-
8bb-
8aa
8bb-
=412
8eee-
8eee-
8eee-
8eee-
8ddd
8eee-
=413
16e-
16f
16e-
16d
16e-
16d
16e-
16e
16f
16f#
16g
16a-
=414
16a
16b-
16b
16cc
16cc#
16dd
16ee
16ff
16ff#
16gg
16aa-
16aa
=415
4bb-
8r
4gg
8r
=416
4aa-
8r
4dd
8r
=417
16E-
16e-
16E-
16e-
16E-
16e-
16E-
16e-
16E-
16d
16D
16e-
=418
16G
16g
16G
16g
16G
16g
16G
16g
16F#
16f#
16G
16g
=419
16B-
16b-
16B-
16b-
16B-
16b-
16B-
16b-
16A
16a
16B-
16b-
=420
16e-
16ee-
16e-
16ee-
16e-
16ee-
16e-
16ee-
16d
16dd
16e-
16ee-
=421
2.r
=422
4.r
16e-
16e
16f
16f#
16g
16a-
=423
16a
16b-
16b
16cc
16cc#
16dd
16ee-
16ee
16ff
16gg-
16ff
16gg-
=424
16ff
16gg-
16ff
16gg-
16ff
16gg-
16ff
16gg-
16ff
16gg-
16ff
16gg-
=425
8gg
8ff
8ee-
8ee-
8dd
8cc
=426
8b-
8a-
8g
8f
8a-
8d
=427
8e-
16eee-
16gg
16eee-
16gg
16ee-
16gg
16eee-
16gg
16eee-
16gg
=428
16ff-
16gg
16ddd-
16gg
16ddd-
16gg
16ee-
16gg
16eee-
16gg
16eee-
16gg
=429
16dd-
16gg
16fff-
16gg
16fff-
16gg
16ee-
16gg
16eee-
16gg
16eee-
16gg
=430
16ff-
16gg
16ddd-
16gg
16ddd-
16gg
16dd-
16gg
16fff-
16gg
16fff-
16gg
=431
16cc
16aa-
16eee-
16aa-
16eee-
16aa-
16dd-
16aa-
16ddd-
16aa-
16ddd-
16aa-
=432
16ee-
16aa-
16ccc
16aa-
16ccc
16aa-
16ee-
16aa-
16ccc-
16aa-
16ccc-
16aa-
=433
16dd
16aa-
16ccc-
16aa-
16ccc-
16aa-
16dd
16aa-
16bb-
16aa-
16bb-
16aa-
=434
16dd
16aa-
16bb-
16aa-
16bb-
16aa-
16dd
16aa-
16bb-
16aa-
16bb-
16aa-
=435
16ee-
16gg
16bb-
16gg
16bb-
16gg
16g
16ee-
16gg
16ee-
16gg
16ee-
=436
16g
16ff-
16gg
16ff-
16gg
16ff-
16g
16ee-
16gg
16ee-
16gg
16ee-
=437
16g
16dd-
16gg
16dd-
16gg
16dd-
16g
16ee-
16gg
16ee-
16gg
16ee-
=438
16g
16ff-
16gg
16ff-
16gg
16ff-
16g
16dd-
16gg
16dd-
16gg
16dd-
=439
16a-
16cc
16aa-
16cc
16aa-
16cc
16a-
16cc-
16aa-
16cc-
16aa-
16cc-
=440
16a-
16b-
16ee-
16b-
16ee-
16b-
16g
16b-
16ee-
16b-
16ee-
16b-
=441
16f
16a-
16ee-
16a-
16ee-
16a-
16f
16a-
16dd
16a-
16dd
16a-
=442
16f
16b-
16dd
16b-
16dd
16b-
16f
16cc-
16dd
16cc-
16dd
16cc-
=443
4ee-
8g[
4g]
8e-
=444
4B-
8ff
4ff
8dd
=445
4ee-
8g[
4g]
8e-
=446
4B-
8aa-[
4aa-]
8ff
=447
4gg
8g[
4g]
8e-
=448
4B-
[8fff
4fff]
8ddd
=449
[2.fff
=450
4fff]
8ddd
4fff
8ddd
=451
2.eee-
=452
4ccc
8r
4r
8gg
=453
2.aa-
=454
4ff
8r
4r
8ff
=455
2.ff
=456
4dd
8r
4a-
8r
=457
4f
8r
4d
8r
=458
4A-
8r
4F
8r
=459
4E-
8r
4.gg
=460
4.ff
4.ee-
=461
4cc
8r
4.aa-
=462
4.gg
4.ff
=463
4dd
8r
4.b-
=464
4.dd
4.ee-
=465
4cc
8e-
4.cc
=466
4.ee
4.ff
=467
4dd
8f
4.dd
=468
4.ee-
4.ff
=469
4gg
8r
4.eee-
=470
4.eee-
4.eee-
=471
4eee-
8r
4.eee-
=472
4.ee-
4.bb-
=473
4.b-
4.aa-
=474
2.r
=475
4r
8a-[
4a-]
8f
=476
4d
8aa-[
4aa-]
8ff
=477
4dd
8a-[
4a-]
8f
=478
4d
8ccc-[
4ccc-]
8aa-
=479
4ff
8cc-[
4cc-]
8a-
=480
4f
8cc-[
4cc-]
8a-
=481
4f
8cc-[
4cc-]
8b-
=482
4a
8a[
4a]
8a-
=483
4g
8gg[
4gg]
8ff#
=484
4ff
[8ee
4ee]
[8ee-
=485
2.ee-]
=486
2.dd
=487
4ee-
8r
4r
8r
=488
2.g
=489
4e-
8r
4r
8r
=490
2.b-
=491
4g
8r
4ee-
8r
=492
4b-
8r
4gg
8r
=493
4ee-
8r
4bb-
8r
=494
4gg
8r
4eee-
8r
=495
4e-
8r
4d
8r
=496
4e-
8r
4ddd
8r
=497
4eee-
8r
4r
8r
=498
2.r
==
*-
